svg/fluentui-system-icons/ic_fluent_weather_hail_day_48_regular.svg

<svg width="48" height="48" viewBox="0 0 48 48" fill="none" xmlns="http://www.w3.org/2000/svg">
<path d="M25.9999 40.0314C27.1045 40.0314 27.9999 40.9268 27.9999 42.0314C27.9999 43.1359 27.1045 44.0314 25.9999 44.0314C24.8954 44.0314 23.9999 43.1359 23.9999 42.0314C23.9999 40.9268 24.8954 40.0314 25.9999 40.0314ZM18.9999 38.0314C20.1045 38.0314 20.9999 38.9268 20.9999 40.0314C20.9999 41.1359 20.1045 42.0314 18.9999 42.0314C17.8954 42.0314 16.9999 41.1359 16.9999 40.0314C16.9999 38.9268 17.8954 38.0314 18.9999 38.0314ZM32.9999 38.0314C34.1045 38.0314 34.9999 38.9268 34.9999 40.0314C34.9999 41.1359 34.1045 42.0314 32.9999 42.0314C31.8954 42.0314 30.9999 41.1359 30.9999 40.0314C30.9999 38.9268 31.8954 38.0314 32.9999 38.0314ZM25.9988 12.0097C32.3359 12.0097 35.9308 16.2043 36.4536 21.2699L36.6136 21.2699C40.6917 21.2699 43.9977 24.5674 43.9977 28.635C43.9977 32.7026 40.6917 36 36.6136 36H15.3841C11.3059 36 7.99993 32.7026 7.99993 28.635C7.99993 24.5674 11.3059 21.2699 15.3841 21.2699L15.544 21.2699C16.0699 16.171 19.6618 12.0097 25.9988 12.0097ZM25.9988 14.5049C21.7378 14.5049 18.0238 17.9528 18.0238 22.7154C18.0238 23.4701 17.3676 24.0622 16.6163 24.0622L15.1958 24.0621C12.6017 24.0621 10.4988 26.176 10.4988 28.7835C10.4988 31.391 12.6017 33.5049 15.1958 33.5049H36.8019C39.3959 33.5049 41.4989 31.391 41.4989 28.7835C41.4989 26.176 39.3959 24.0621 36.8019 24.0621L35.3813 24.0622C34.63 24.0622 33.9739 23.4701 33.9739 22.7154C33.9739 17.8917 30.2599 14.5049 25.9988 14.5049ZM8.70837 20.3034C8.95477 20.8983 8.70535 21.5748 8.15039 21.8736L8.03538 21.9282L5.7239 22.89C5.08939 23.1528 4.36196 22.8515 4.09913 22.217C3.85274 21.6221 4.10216 20.9456 4.65712 20.6468L4.77213 20.5922L7.08361 19.6304C7.71812 19.3676 8.44555 19.6689 8.70837 20.3034ZM21.7083 10.6621L21.6473 10.6817C20.7226 10.9836 19.8632 11.3837 19.0763 11.8718C17.7681 11.3184 16.2469 11.2694 14.8303 11.8561C12.024 13.0186 10.6913 16.2359 11.8537 19.0422C11.9672 19.3163 12.1003 19.5762 12.2507 19.8212C11.492 20.0923 10.7785 20.4596 10.1246 20.9082C9.94789 20.6053 9.78988 20.287 9.65203 19.9542C7.98594 15.9319 9.89603 11.3205 13.9183 9.65443C16.6028 8.54248 19.5497 9.02344 21.7083 10.6621ZM5.58017 10.842L5.70715 10.8877L8.02597 11.8766C8.65576 12.1427 8.95784 12.872 8.70068 13.5055C8.46067 14.0968 7.81832 14.3956 7.2217 14.2165L7.09471 14.1707L4.7759 13.1819C4.1461 12.9158 3.84402 12.1865 4.10118 11.553C4.3412 10.9617 4.98354 10.6628 5.58017 10.842ZM12.9485 4.66832L13.0034 4.78393L13.9639 7.08985C14.228 7.72766 13.9252 8.45887 13.2874 8.72306C12.6894 8.97073 12.0094 8.72001 11.709 8.16217L11.6542 8.04656L10.6937 5.74064C10.4295 5.10283 10.7324 4.37162 11.3702 4.10744C11.9681 3.85976 12.6482 4.11048 12.9485 4.66832ZM21.9969 4.10823C22.5986 4.35747 22.9054 5.01794 22.7265 5.62907L22.6807 5.7591L21.6893 8.03479C21.4223 8.6795 20.6832 8.98565 20.0385 8.71861C19.4367 8.46936 19.1299 7.80889 19.3088 7.19777L19.3547 7.06773L20.346 4.79204C20.613 4.14734 21.3522 3.84118 21.9969 4.10823Z" fill="#212121"/>
</svg>

<svg xmlns="http://www.w3.org/2000/svg" width="48" height="48"><path d="M26 40.031a2 2 0 1 1 0 4 2 2 0 0 1 0-4Zm-7-2a2 2 0 1 1 0 4 2 2 0 0 1 0-4Zm14 0a2 2 0 1 1 0 4 2 2 0 0 1 0-4ZM25.999 12.01c6.337 0 9.932 4.194 10.455 9.26h.16c4.078 0 7.384 3.297 7.384 7.365S40.692 36 36.614 36h-21.23C11.306 36 8 32.703 8 28.635s3.306-7.365 7.384-7.365h.16c.526-5.099 4.118-9.26 10.455-9.26Zm0 2.495c-4.261 0-7.975 3.448-7.975 8.21 0 .755-.656 1.347-1.408 1.347h-1.42c-2.594 0-4.697 2.114-4.697 4.721 0 2.608 2.103 4.722 4.697 4.722h21.606c2.594 0 4.697-2.114 4.697-4.722 0-2.607-2.103-4.72-4.697-4.72h-1.42c-.752 0-1.408-.593-1.408-1.348 0-4.823-3.714-8.21-7.975-8.21Zm-17.29 5.798a1.244 1.244 0 0 1-.559 1.57l-.115.055-2.311.962a1.244 1.244 0 0 1-1.067-2.243l.115-.055 2.312-.962a1.244 1.244 0 0 1 1.624.673Zm13-9.64-.062.019c-.924.302-1.784.702-2.57 1.19a5.5 5.5 0 0 0-6.826 7.95 9.276 9.276 0 0 0-2.126 1.086 7.883 7.883 0 0 1 11.584-10.246Zm-16.129.179.127.046 2.319.989c.63.266.932.995.675 1.628-.24.592-.883.89-1.48.711l-.126-.045-2.32-.99a1.26 1.26 0 0 1-.674-1.628c.24-.591.883-.89 1.48-.711Zm7.368-6.174.055.116.96 2.306a1.25 1.25 0 0 1-2.254 1.072l-.055-.115-.96-2.306a1.25 1.25 0 0 1 2.254-1.073Zm9.049-.56c.602.25.908.91.73 1.521l-.046.13-.992 2.276a1.263 1.263 0 0 1-2.38-.837l.046-.13.991-2.276a1.264 1.264 0 0 1 1.65-.684Z"/></svg>
